ufans-frontend-package/public/assets/images/video-call/mic-off.svg

<svg width="110" height="135" viewBox="0 0 110 135" fill="none" xmlns="http://www.w3.org/2000/svg">
<path d="M79.3605 23.8531V59.888C79.3605 61.2033 79.2765 62.4555 79.1268 63.6579L37.6681 14.3417C45.3156 -7.54805 79.3605 -4.38194 79.3605 23.8531ZM1.64904 15.2815C-0.847621 12.3123 -0.464328 7.88082 2.50488 5.38417C5.4741 2.88751 9.9056 3.2708 12.4023 6.24001L36.1507 34.4882V34.3701L72.3929 77.4827L72.3378 77.5326L82.9414 90.1472L82.9965 90.0947L89.9142 98.3223L89.8591 98.3749L108.352 120.372C110.848 123.341 110.465 127.776 107.496 130.272C104.527 132.769 100.095 132.386 97.5984 129.416L78.2421 106.39L77.3889 106.797C72.8765 108.888 68.0585 110.243 63.1178 110.811V129.183C63.1178 130.661 62.514 132.005 61.5452 132.974C61.0478 133.472 60.4569 133.868 59.8064 134.138C59.1559 134.407 58.4585 134.546 57.7543 134.546C56.2762 134.546 54.9347 133.942 53.966 132.974C53.4674 132.476 53.0719 131.885 52.802 131.235C52.5322 130.584 52.3933 129.887 52.3934 129.183V110.811C47.4546 110.243 42.639 108.886 38.1302 106.792C33.0607 104.445 28.477 101.221 24.581 97.3247L24.4891 97.225C20.1915 92.9064 16.7235 87.7634 14.3529 82.0691C11.9909 76.391 10.7765 70.3013 10.7798 64.1515C10.7798 62.6813 11.3836 61.3371 12.355 60.3658C13.3211 59.3944 14.6626 58.7906 16.1407 58.7906C17.6214 58.7906 18.9629 59.3944 19.9316 60.3632L20.0393 60.4813C20.9476 61.4395 21.5042 62.7364 21.5042 64.1515C21.5042 69.0398 22.486 73.7076 24.2581 77.9658C26.1037 82.3999 28.8077 86.4009 32.1576 89.7507C35.5128 93.1006 39.5137 95.8099 43.94 97.6503C48.3181 99.4703 53.013 100.406 57.7543 100.404C62.4509 100.404 66.9455 99.4985 71.0672 97.855L58.6364 83.0694C47.5498 83.5052 36.1507 75.7763 36.1507 59.888V56.3202L1.64904 15.2815ZM91.2216 78.0445L91.2531 77.9658C93.0252 73.7076 94.007 69.0398 94.007 64.1515C94.007 62.6734 94.6109 61.3293 95.5796 60.3605C96.5483 59.3918 97.8898 58.7906 99.3679 58.7906C100.846 58.7906 102.19 59.3918 103.159 60.3605L103.266 60.4787C104.172 61.4395 104.731 62.7338 104.731 64.1515C104.735 72.1581 102.679 80.031 98.7588 87.0126L91.2216 78.0445Z" fill="#6661E7"/>
</svg>

<svg xmlns="http://www.w3.org/2000/svg" width="109.999" height="134.546" viewBox="0 0 109.999 134.546">
  <path id="mic-off" d="M79.36,23.853V59.888a30.424,30.424,0,0,1-.234,3.77L37.668,14.342C45.316-7.548,79.36-4.382,79.36,23.853ZM1.649,15.281A7.025,7.025,0,0,1,12.4,6.24L36.151,34.488V34.37L72.393,77.483l-.055.05,10.6,12.615L83,90.095l6.918,8.228-.055.053,18.493,22A7.026,7.026,0,1,1,97.6,129.416L78.242,106.39l-.853.407a46.6,46.6,0,0,1-14.271,4.014v18.372a5.362,5.362,0,0,1-10.724,0V110.811a46.466,46.466,0,0,1-14.263-4.019,47.255,47.255,0,0,1-13.549-9.467l-.092-.1A47.268,47.268,0,0,1,14.353,82.069,46.586,46.586,0,0,1,10.78,64.151a5.359,5.359,0,0,1,9.152-3.788l.108.118a5.327,5.327,0,0,1,1.465,3.67,35.88,35.88,0,0,0,2.754,13.814A36.639,36.639,0,0,0,43.94,97.65a36.034,36.034,0,0,0,27.127.2L58.636,83.069c-11.087.436-22.486-7.293-22.486-23.181V56.32ZM91.222,78.045l.031-.079a35.88,35.88,0,0,0,2.754-13.814,5.361,5.361,0,0,1,9.152-3.791l.107.118a5.344,5.344,0,0,1,1.465,3.673,46.645,46.645,0,0,1-5.972,22.861Z" transform="translate(-0.001)" fill="#e44499"/>
</svg>
